X: 21084
T: The POSIE
%R: reel
B: W. Hamilton "Universal Tune-Book" Vol. 2 Glasgow 1846 p.108 #4
S: http://s3-eu-west-1.amazonaws.com/itma.dl.printmaterial/book_pdfs/hamiltonvol2web.pdf
Z: 2016 John Chambers <jc:trillian.mit.edu>
M: C|
L: 1/8
K: Em
% - - - - - - - - - - - - - - - - - - - - - - - - -
B |\
e>^def g2fe | bbag f3(e/^d/) |\
e>^def g2B2 | cBAG A3B |\
eBBB eBBB | cBAG F3(G/A/) |\
B^cdf e<BB>A | G2F2 E2 |]
% - - - - - - - - - - - - - - - - - - - - - - - - -

%%sep 1 1 500
%%sep 1 1 500

